templates/flag_icons/gb.svg

<?xml version="1.0" encoding="UTF-8" standalone="no"?>
<svg width="23px" height="17px" viewBox="0 0 23 17" version="1.1" xmlns="http://www.w3.org/2000/svg" xmlns:xlink="http://www.w3.org/1999/xlink">
    <!-- Generator: Sketch 3.7.2 (28276) - http://www.bohemiancoding.com/sketch -->
    <title>GB</title>
    <desc>Created with Sketch.</desc>
    <defs>
        <linearGradient x1="50%" y1="0%" x2="50%" y2="100%" id="linearGradient-1">
            <stop stop-color="#FFFFFF" offset="0%"></stop>
            <stop stop-color="#F0F0F0" offset="100%"></stop>
        </linearGradient>
        <rect id="path-2" x="0" y="0" width="21" height="15" rx="1.5"></rect>
        <filter x="-50%" y="-50%" width="200%" height="200%" filterUnits="objectBoundingBox" id="filter-4">
            <feOffset dx="0" dy="0.5" in="SourceAlpha" result="shadowOffsetOuter1"></feOffset>
            <feGaussianBlur stdDeviation="0.5" in="shadowOffsetOuter1" result="shadowBlurOuter1"></feGaussianBlur>
            <feColorMatrix values="0 0 0 0 0   0 0 0 0 0   0 0 0 0 0  0 0 0 0.16 0" type="matrix" in="shadowBlurOuter1"></feColorMatrix>
        </filter>
        <linearGradient x1="50%" y1="0%" x2="50%" y2="100%" id="linearGradient-5">
            <stop stop-color="#0A17A7" offset="0%"></stop>
            <stop stop-color="#030E88" offset="100%"></stop>
        </linearGradient>
        <path d="M8,10.3924892 L8,16 L13,16 L13,10.3924892 L21.9618519,16.4373347 L23.0802377,14.7792595 L15.9946941,10 L21,10 L21,5 L15.9946941,5 L23.0802377,0.220740472 L21.9618519,-1.43733467 L13,4.60751076 L13,-1 L8,-1 L8,4.60751076 L-0.961851899,-1.43733467 L-2.08023771,0.220740472 L5.00530593,5 L3.90798505e-14,5 L3.90798505e-14,10 L5.00530593,10 L-2.08023771,14.7792595 L-0.961851899,16.4373347 L8,10.3924892 Z" id="path-6"></path>
        <filter x="-50%" y="-50%" width="200%" height="200%" filterUnits="objectBoundingBox" id="filter-7">
            <feMorphology radius="0.25" operator="dilate" in="SourceAlpha" result="shadowSpreadOuter1"></feMorphology>
            <feOffset dx="0" dy="0" in="shadowSpreadOuter1" result="shadowOffsetOuter1"></feOffset>
            <feColorMatrix values="0 0 0 0 0   0 0 0 0 0   0 0 0 0 0  0 0 0 0.06 0" type="matrix" in="shadowOffsetOuter1"></feColorMatrix>
        </filter>
        <linearGradient x1="50%" y1="0%" x2="50%" y2="100%" id="linearGradient-8">
            <stop stop-color="#E7273E" offset="0%"></stop>
            <stop stop-color="#CF152B" offset="100%"></stop>
        </linearGradient>
        <rect id="path-9" x="0" y="0" width="21" height="15" rx="1.5"></rect>
    </defs>
    <g id="Flag-Kit" stroke="none" stroke-width="1" fill="none" fill-rule="evenodd">
        <g id="GB">
            <g id="Rectangle-1-Copy-3" transform="translate(1.000000, 1.000000)">
                <mask id="mask-3" fill="white">
                    <use xlink:href="#path-2"></use>
                </mask>
                <g id="Mask">
                    <use fill="black" fill-opacity="1" filter="url(#filter-4)" xlink:href="#path-2"></use>
                    <use fill="url(#linearGradient-1)" fill-rule="evenodd" xlink:href="#path-2"></use>
                </g>
                <rect id="Mask-Copy" fill="url(#linearGradient-5)" mask="url(#mask-3)" x="0" y="0" width="21" height="15"></rect>
                <g id="Rectangle-2" mask="url(#mask-3)">
                    <use fill="black" fill-opacity="1" filter="url(#filter-7)" xlink:href="#path-6"></use>
                    <use fill="url(#linearGradient-1)" fill-rule="evenodd" xlink:href="#path-6"></use>
                </g>
                <path d="M14.0009766,4.74914551 L23.5,-1.5" id="Line" stroke="#DB1F35" stroke-width="0.5" stroke-linecap="round" mask="url(#mask-3)"></path>
                <path d="M15.0095825,16.0127563 L23.5249634,10.2731323" id="Line-Copy-2" stroke="#DB1F35" stroke-width="0.5" stroke-linecap="round" mask="url(#mask-3)" transform="translate(19.267273, 13.142944) scale(1, -1) translate(-19.267273, -13.142944) "></path>
                <path d="M6.00415039,4.73284912 L-2.87811279,-1.25323486" id="Line-Copy" stroke="#DB1F35" stroke-width="0.5" stroke-linecap="round" mask="url(#mask-3)"></path>
                <path d="M6.9675293,16.7328491 L-2.87811279,10.2036743" id="Line-Copy-3" stroke="#DB1F35" stroke-width="0.5" stroke-linecap="round" mask="url(#mask-3)" transform="translate(2.044708, 13.468262) scale(1, -1) translate(-2.044708, -13.468262) "></path>
                <polygon id="Rectangle-2-Copy-3" fill="url(#linearGradient-8)" mask="url(#mask-3)" points="0 9 9 9 9 15 12 15 12 9 21 9 21 6 12 6 12 0 9 0 9 6 0 6"></polygon>
                <mask id="mask-10" fill="white">
                    <use xlink:href="#path-9"></use>
                </mask>
                <g id="Depth"></g>
            </g>
        </g>
    </g>
</svg>

<svg width="23" height="17" viewBox="0 0 23 17" xmlns="http://www.w3.org/2000/svg" xmlns:xlink="http://www.w3.org/1999/xlink"><title>GB</title><defs><linearGradient x1="50%" y1="0%" x2="50%" y2="100%" id="c"><stop stop-color="#FFF" offset="0%"/><stop stop-color="#F0F0F0" offset="100%"/></linearGradient><rect id="a" width="21" height="15" rx="1.5"/><filter x="-50%" y="-50%" width="200%" height="200%" filterUnits="objectBoundingBox" id="b"><feOffset dy=".5" in="SourceAlpha" result="shadowOffsetOuter1"/><feGaussianBlur stdDeviation=".5" in="shadowOffsetOuter1" result="shadowBlurOuter1"/><feColorMatrix values="0 0 0 0 0 0 0 0 0 0 0 0 0 0 0 0 0 0 0.16 0" in="shadowBlurOuter1"/></filter><linearGradient x1="50%" y1="0%" x2="50%" y2="100%" id="d"><stop stop-color="#0A17A7" offset="0%"/><stop stop-color="#030E88" offset="100%"/></linearGradient><path d="M8 10.4V16h5v-5.6l8.96 6.04 1.12-1.66L15.99 10H21V5h-5L23.07.22l-1.12-1.66L13 4.61V-1H8v5.6L-.96-1.43-2.08.22 5.01 5H0v5h5l-7.08 4.78 1.12 1.66L8 10.39z" id="g"/><filter x="-50%" y="-50%" width="200%" height="200%" filterUnits="objectBoundingBox" id="f"><feMorphology radius=".25" operator="dilate" in="SourceAlpha" result="shadowSpreadOuter1"/><feOffset in="shadowSpreadOuter1" result="shadowOffsetOuter1"/><feColorMatrix values="0 0 0 0 0 0 0 0 0 0 0 0 0 0 0 0 0 0 0.06 0" in="shadowOffsetOuter1"/></filter><linearGradient x1="50%" y1="0%" x2="50%" y2="100%" id="h"><stop stop-color="#E7273E" offset="0%"/><stop stop-color="#CF152B" offset="100%"/></linearGradient></defs><g transform="translate(1 1)" fill="none" fill-rule="evenodd"><mask id="e" fill="#fff"><use xlink:href="#a"/></mask><use fill="#000" filter="url(#b)" xlink:href="#a"/><use fill="url(#c)" xlink:href="#a"/><path fill="url(#d)" mask="url(#e)" d="M0 0h21v15H0z"/><g mask="url(#e)"><use fill="#000" filter="url(#f)" xlink:href="#g"/><use fill="url(#c)" xlink:href="#g"/></g><path d="M14 4.75l9.5-6.25" stroke="#DB1F35" stroke-width=".5" stroke-linecap="round" mask="url(#e)"/><path d="M15.01 16.01l8.51-5.74" stroke="#DB1F35" stroke-width=".5" stroke-linecap="round" mask="url(#e)" transform="matrix(1 0 0 -1 0 26.29)"/><path d="M6 4.73l-8.88-5.98" stroke="#DB1F35" stroke-width=".5" stroke-linecap="round" mask="url(#e)"/><path d="M6.97 16.73l-9.85-6.53" stroke="#DB1F35" stroke-width=".5" stroke-linecap="round" mask="url(#e)" transform="matrix(1 0 0 -1 0 26.94)"/><path fill="url(#h)" mask="url(#e)" d="M0 9h9v6h3V9h9V6h-9V0H9v6H0z"/></g></svg>
